src/site/images/flags/jo.svg

<svg height="480" viewBox="0 0 640 480" width="640" xmlns="http://www.w3.org/2000/svg" xmlns:xlink="http://www.w3.org/1999/xlink"><clipPath id="a"><path d="m-117.82 0h682.67v512h-682.67z"/></clipPath><g clip-path="url(#a)" transform="matrix(.9375 0 0 .9375 110.46 0)"><g fill-rule="evenodd" stroke-width="1pt"><path d="m-117.82 0h1024.002v170.667h-1024.002z"/><path d="m-117.82 170.667h1024.002v170.667h-1024.002z" fill="#fff"/><path d="m-117.82 341.334h1024.002v170.667h-1024.002z" fill="#090"/><path d="m-117.82 512.001 512.001-256-512.001-256.001z" fill="#f00"/><path d="m24.528 288.964 5.664-24.82h-25.449l22.928-11.045-15.867-19.9 22.93 11.05 5.664-24.82 5.661 24.82 22.93-11.05-15.866 19.9 22.93 11.045h-25.451l5.663 24.82-15.867-19.92z" fill="#fff"/></g></g></svg>

<svg xmlns="http://www.w3.org/2000/svg" height="480" width="640" viewBox="0 0 640 480">
  <defs>
    <clipPath id="a">
      <path fill-opacity=".67" d="M-117.82 0h682.67v512h-682.67z"/>
    </clipPath>
  </defs>
  <g clip-path="url(#a)" transform="translate(110.46) scale(.9375)">
    <g fill-rule="evenodd" stroke-width="1pt">
      <path d="M-117.82 0H906.182v170.667H-117.82z"/>
      <path fill="#fff" d="M-117.82 170.667H906.182v170.667H-117.82z"/>
      <path fill="#090" d="M-117.82 341.334H906.182v170.667H-117.82z"/>
      <path d="M-117.82 512.001l512.001-256L-117.82 0v512.001z" fill="red"/>
      <path fill="#fff" d="M24.528 288.964l5.664-24.82H4.743l22.928-11.045-15.867-19.9 22.93 11.05 5.664-24.82 5.661 24.82 22.93-11.05-15.866 19.9 22.93 11.045H50.602l5.663 24.82-15.867-19.92z"/>
    </g>
  </g>
</svg>
